src/assets/filled/WalletAdd1.svg

<svg width="24" height="24" viewBox="0 0 24 24"  xmlns="http://www.w3.org/2000/svg">
<path d="M11.94 2.21001L9.52995 7.82001H7.11995C6.71995 7.82001 6.32995 7.85001 5.94995 7.93001L6.94995 5.53001L6.98995 5.44001L7.04995 5.28001C7.07995 5.21001 7.09995 5.15001 7.12995 5.10001C8.28995 2.41001 9.58995 1.57001 11.94 2.21001Z" />
<path d="M18.7301 8.09002L18.7101 8.08002C18.1101 7.91002 17.5001 7.82002 16.8801 7.82002H10.6201L12.8701 2.59002L12.9001 2.52002C13.0401 2.57002 13.1901 2.64002 13.3401 2.69002L15.5501 3.62002C16.7801 4.13002 17.6401 4.66002 18.1701 5.30002C18.2601 5.42002 18.3401 5.53002 18.4201 5.66002C18.5101 5.80002 18.5801 5.94002 18.6201 6.09002C18.6601 6.18002 18.6901 6.26002 18.7101 6.35002C18.8601 6.86002 18.8701 7.44002 18.7301 8.09002Z" />
<path d="M18.29 9.52001C17.84 9.39001 17.37 9.32001 16.88 9.32001H7.11999C6.43999 9.32001 5.79999 9.45001 5.19999 9.71001C3.45999 10.46 2.23999 12.19 2.23999 14.2V16.15C2.23999 16.39 2.25999 16.62 2.28999 16.86C2.50999 20.04 4.20999 21.74 7.38999 21.95C7.61999 21.98 7.84999 22 8.09999 22H15.9C19.6 22 21.55 20.24 21.74 16.74C21.75 16.55 21.76 16.35 21.76 16.15V14.2C21.76 11.99 20.29 10.13 18.29 9.52001ZM14.5 16.19H12.75V18C12.75 18.41 12.41 18.75 12 18.75C11.59 18.75 11.25 18.41 11.25 18V16.19H9.49999C9.08999 16.19 8.74999 15.86 8.74999 15.44C8.74999 15.03 9.08999 14.69 9.49999 14.69H11.25V13C11.25 12.59 11.59 12.25 12 12.25C12.41 12.25 12.75 12.59 12.75 13V14.69H14.5C14.91 14.69 15.25 15.03 15.25 15.44C15.25 15.86 14.91 16.19 14.5 16.19Z" />
</svg>

<?xml version="1.0" encoding="UTF-8"?>
<svg width="24" height="24" viewBox="0 0 24 24" xmlns="http://www.w3.org/2000/svg">
 <path d="m11.94 2.21-2.41 5.61h-2.41c-0.4 0-0.79 0.03-1.17 0.11l1-2.4 0.04-0.09 0.06-0.16c0.03-0.07 0.05-0.13 0.08-0.18 1.16-2.69 2.46-3.53 4.81-2.89z"/>
 <path d="m18.73 8.09-0.02-0.01c-0.6-0.17-1.21-0.26-1.83-0.26h-6.26l2.25-5.23 0.03-0.07c0.14 0.05 0.29 0.12 0.44 0.17l2.21 0.93c1.23 0.51 2.09 1.04 2.62 1.68 0.09 0.12 0.17 0.23 0.25 0.36 0.09 0.14 0.16 0.28 0.2 0.43 0.04 0.09 0.07 0.17 0.09 0.26 0.15 0.51 0.16 1.09 0.02 1.74z"/>
 <path d="m18.29 9.52c-0.45-0.13-0.92-0.2-1.41-0.2h-9.76c-0.68 0-1.32 0.13-1.92 0.39-1.74 0.74999-2.96 2.48-2.96 4.49v1.95c0 0.24 0.02 0.47 0.05 0.71 0.22 3.18 1.92 4.88 5.1 5.09 0.23 0.03 0.46 0.05 0.71 0.05h7.8c3.7 0 5.65-1.76 5.84-5.26 0.01-0.19 0.02-0.39 0.02-0.59v-1.95c0-2.21-1.47-4.07-3.47-4.68zm-3.79 6.67h-1.75v1.81c0 0.41-0.34 0.75-0.75 0.75s-0.75-0.34-0.75-0.75v-1.81h-1.75c-0.41 0-0.75-0.33-0.75-0.75 0-0.41 0.34-0.75 0.75-0.75h1.75v-1.69c0-0.41 0.34-0.75 0.75-0.75s0.75 0.34 0.75 0.75v1.69h1.75c0.41 0 0.75 0.34 0.75 0.75 0 0.42-0.34 0.75-0.75 0.75z"/>
</svg>
